public/images/employers/blackrock.svg

<svg enable-background="new -0.699 -63.73 149 149" height="149" viewBox="-.699 -63.73 149 149" width="149" xmlns="http://www.w3.org/2000/svg"><path d="m19.337 21.127v-21.127h4.813v21.127zm93.548-7.893c0-5.106-3.961-8.275-8.598-8.275-4.666 0-8.598 3.199-8.598 8.275 0 5.105 3.961 8.304 8.598 8.304s8.598-3.227 8.598-8.304zm-4.754 0c0 2.67-1.789 4.166-3.873 4.166s-3.873-1.496-3.873-4.166c0-2.7 1.789-4.138 3.873-4.138s3.873 1.438 3.873 4.138zm-90.73 1.819c0-2.377-1.232-4.196-3.433-5.017 2.083-1.145 2.817-2.641 2.817-4.402 0-3.081-2.23-5.634-7.219-5.604h-9.566v21.127h9.977c5.018-.03 7.424-2.524 7.424-6.104zm-5.722-8.803c0 1.438-.91 2.26-2.67 2.26h-3.991v-4.402h3.991c1.614 0 2.67.705 2.67 2.142zm.44 8.48c0 1.379-.969 2.289-2.759 2.289h-4.342v-4.578h4.342c1.732 0 2.759.881 2.759 2.289zm47.185-5.458c-1.321-2.758-3.786-4.284-7.512-4.284-4.401 0-8.333 2.758-8.333 8.246 0 5.34 3.462 8.304 8.275 8.304 3.375 0 6.221-1.35 7.571-4.255l-3.874-1.995c-.704 1.291-1.79 2.112-3.521 2.112-2.23 0-3.668-1.584-3.668-4.166 0-2.583 1.644-4.138 3.639-4.138 1.555 0 2.729.704 3.463 2.23zm70.923 0c-1.32-2.758-3.785-4.284-7.512-4.284-4.401 0-8.334 2.758-8.334 8.246 0 5.34 3.463 8.304 8.275 8.304 3.375 0 6.221-1.35 7.57-4.255l-3.873-1.995c-.704 1.291-1.79 2.112-3.521 2.112-2.229 0-3.668-1.584-3.668-4.166 0-2.583 1.644-4.138 3.639-4.138 1.556 0 2.729.704 3.463 2.23zm-40.348 11.855-4.02-7.101h-3.081v7.101h-4.959v-21.127h8.95c4.842 0 8.216 2.318 8.216 6.866 0 2.905-1.438 4.96-3.991 6.222l4.637 8.039zm-7.071-11.297h3.697c2.289 0 3.403-1.291 3.403-2.817 0-1.819-1.056-2.817-3.403-2.817h-3.697zm-40.142 11.033v-3.316c-.206.06-.499.118-.822.118-.616 0-.938-.323-.938-.88v-5.488c0-4.108-2.759-6.28-7.307-6.28-2.964 0-5.487 1.086-7.072 2.494l2.67 2.993c1.057-.939 2.465-1.526 3.844-1.526 2.113 0 3.11 1.057 3.11 2.788v.499c-.998-.234-2.259-.47-3.785-.47-3.844 0-6.338 1.849-6.338 4.9 0 3.14 2.083 4.783 5.311 4.783 2.201 0 4.167-.909 5.194-2.083.616 1.555 1.966 1.966 3.287 1.966.909.031 1.965-.117 2.846-.498zm-6.485-4.959c0 1.438-1.379 2.377-2.964 2.377-1.496 0-2.23-.764-2.23-1.819 0-1.115.822-1.937 2.494-1.937 1.027 0 1.937.176 2.7.352zm111.241 5.223-5.662-9.83 5.311-5.781h-5.341l-5.604 6.221v-11.708h-4.783v21.127h4.783v-3.814l2.289-2.436 3.58 6.25h5.428v-.029zm-70.864 0-5.664-9.83 5.312-5.781h-5.399l-5.546 6.221v-11.708h-4.783v21.127h4.783v-3.814l2.289-2.436 3.58 6.25h5.429v-.029zm73.799-2.934c.997 0 1.584.615 1.584 1.555s-.587 1.556-1.584 1.556c-.998 0-1.585-.616-1.585-1.556s.587-1.555 1.585-1.555zm0 2.905c.791 0 1.32-.469 1.32-1.35 0-.88-.559-1.35-1.32-1.35-.793 0-1.321.47-1.321 1.35-.029.91.528 1.35 1.321 1.35zm-.617-2.142h.646c.381 0 .586.205.586.499 0 .264-.117.41-.322.498l.293.559h-.293l-.264-.5h-.353v.5h-.294v-1.556zm.294.235v.557h.323c.205 0 .322-.059.322-.264 0-.176-.088-.264-.293-.264h-.353v-.029z"/></svg>

<?xml version="1.0" encoding="utf-8"?>
<!-- Generator: Adobe Illustrator 16.0.0, SVG Export Plug-In . SVG Version: 6.00 Build 0)  -->
<!DOCTYPE svg PUBLIC "-//W3C//DTD SVG 1.1//EN" "http://www.w3.org/Graphics/SVG/1.1/DTD/svg11.dtd">
<svg version="1.1" id="Layer_1" xmlns="http://www.w3.org/2000/svg" xmlns:xlink="http://www.w3.org/1999/xlink" x="0px" y="0px"
	 width="149px" height="149px" viewBox="-0.699 -63.73 149 149" enable-background="new -0.699 -63.73 149 149"
	 xml:space="preserve">
<g id="Nav-IRELAND">
	<g id="BlackRock_Wordmark_Blk_RGB">
		<path id="Shape" d="M19.337,21.127V0h4.813v21.127H19.337z M112.885,13.234c0-5.106-3.961-8.275-8.598-8.275
			c-4.666,0-8.598,3.199-8.598,8.275c0,5.105,3.961,8.304,8.598,8.304S112.885,18.311,112.885,13.234z M108.131,13.234
			c0,2.67-1.789,4.166-3.873,4.166s-3.873-1.496-3.873-4.166c0-2.7,1.789-4.138,3.873-4.138S108.131,10.534,108.131,13.234z
			 M17.401,15.053c0-2.377-1.232-4.196-3.433-5.017c2.083-1.145,2.817-2.641,2.817-4.402c0-3.081-2.23-5.634-7.219-5.604H0v21.127
			h9.977C14.995,21.127,17.401,18.633,17.401,15.053z M11.679,6.25c0,1.438-0.91,2.26-2.67,2.26H5.018V4.108h3.991
			C10.623,4.108,11.679,4.813,11.679,6.25z M12.119,14.73c0,1.379-0.969,2.289-2.759,2.289H5.018v-4.578H9.36
			C11.092,12.441,12.119,13.322,12.119,14.73z M59.304,9.272c-1.321-2.758-3.786-4.284-7.512-4.284
			c-4.401,0-8.333,2.758-8.333,8.246c0,5.34,3.462,8.304,8.275,8.304c3.375,0,6.221-1.35,7.571-4.255l-3.874-1.995
			c-0.704,1.291-1.79,2.112-3.521,2.112c-2.23,0-3.668-1.584-3.668-4.166c0-2.583,1.644-4.138,3.639-4.138
			c1.555,0,2.729,0.704,3.463,2.23L59.304,9.272z M130.227,9.272c-1.32-2.758-3.785-4.284-7.512-4.284
			c-4.401,0-8.334,2.758-8.334,8.246c0,5.34,3.463,8.304,8.275,8.304c3.375,0,6.221-1.35,7.57-4.255l-3.873-1.995
			c-0.704,1.291-1.79,2.112-3.521,2.112c-2.229,0-3.668-1.584-3.668-4.166c0-2.583,1.644-4.138,3.639-4.138
			c1.556,0,2.729,0.704,3.463,2.23L130.227,9.272z M89.879,21.127l-4.02-7.101h-3.081v7.101h-4.959V0h8.95
			c4.842,0,8.216,2.318,8.216,6.866c0,2.905-1.438,4.96-3.991,6.222l4.637,8.039H89.879z M82.808,9.83h3.697
			c2.289,0,3.403-1.291,3.403-2.817c0-1.819-1.056-2.817-3.403-2.817h-3.697V9.83z M42.666,20.863v-3.316
			c-0.206,0.06-0.499,0.118-0.822,0.118c-0.616,0-0.938-0.323-0.938-0.88v-5.488c0-4.108-2.759-6.28-7.307-6.28
			c-2.964,0-5.487,1.086-7.072,2.494l2.67,2.993c1.057-0.939,2.465-1.526,3.844-1.526c2.113,0,3.11,1.057,3.11,2.788v0.499
			c-0.998-0.234-2.259-0.47-3.785-0.47c-3.844,0-6.338,1.849-6.338,4.9c0,3.14,2.083,4.783,5.311,4.783
			c2.201,0,4.167-0.909,5.194-2.083c0.616,1.555,1.966,1.966,3.287,1.966C40.729,21.392,41.785,21.244,42.666,20.863z
			 M36.181,15.904c0,1.438-1.379,2.377-2.964,2.377c-1.496,0-2.23-0.764-2.23-1.819c0-1.115,0.822-1.937,2.494-1.937
			c1.027,0,1.937,0.176,2.7,0.352V15.904z M147.422,21.127l-5.662-9.83l5.311-5.781h-5.341l-5.604,6.221V0.029h-4.783v21.127h4.783
			v-3.814l2.289-2.436l3.58,6.25h5.428V21.127z M76.558,21.127l-5.664-9.83l5.312-5.781h-5.399l-5.546,6.221V0.029h-4.783v21.127
			h4.783v-3.814l2.289-2.436l3.58,6.25h5.429V21.127z M150.357,18.193c0.997,0,1.584,0.615,1.584,1.555s-0.587,1.556-1.584,1.556
			c-0.998,0-1.585-0.616-1.585-1.556S149.359,18.193,150.357,18.193z M150.357,21.098c0.791,0,1.32-0.469,1.32-1.35
			c0-0.88-0.559-1.35-1.32-1.35c-0.793,0-1.321,0.47-1.321,1.35C149.007,20.658,149.564,21.098,150.357,21.098z M149.74,18.956
			h0.646c0.381,0,0.586,0.205,0.586,0.499c0,0.264-0.117,0.41-0.322,0.498l0.293,0.559h-0.293l-0.264-0.5h-0.353v0.5h-0.294V18.956z
			 M150.034,19.191v0.557h0.323c0.205,0,0.322-0.059,0.322-0.264c0-0.176-0.088-0.264-0.293-0.264h-0.353V19.191z"/>
	</g>
</g>
</svg>
